svgs/sharp-solid/computer-speaker.svg

<svg xmlns="http://www.w3.org/2000/svg" viewBox="0 0 640 512"><!--! Font Awesome Pro 6.6.0 by @fontawesome - https://fontawesome.com License - https://fontawesome.com/license (Commercial License) Copyright 2024 Fonticons, Inc. --><path d="M288 480l0-64-160 0-32 0 0 64 32 0 160 0zM64 32L0 32 0 96 0 320l0 64 64 0 224 0 0-64L64 320 64 96l224 0 0-64L64 32zm576 0L320 32l0 448 320 0 0-448zM544 320a64 64 0 1 0 -128 0 64 64 0 1 0 128 0zm-160 0a96 96 0 1 1 192 0 96 96 0 1 1 -192 0zm64-192a32 32 0 1 1 64 0 32 32 0 1 1 -64 0z"/></svg>

<svg xmlns="http://www.w3.org/2000/svg" viewBox="0 0 640 512"><!--! Font Awesome Pro 6.4.2 by @fontawesome - https://fontawesome.com License - https://fontawesome.com/license (Commercial License) Copyright 2023 Fonticons, Inc. --><path d="M288 480V416H128 96v64h32H288zM64 32H0V96 320v64H64 288V320H64V96H288V32H64zm576 0H320V480H640V32zM544 320a64 64 0 1 0 -128 0 64 64 0 1 0 128 0zm-160 0a96 96 0 1 1 192 0 96 96 0 1 1 -192 0zm64-192a32 32 0 1 1 64 0 32 32 0 1 1 -64 0z"/></svg>
